Icons/phone01.svg

<svg width="21" height="21" viewBox="0 0 21 21" fill="none" xmlns="http://www.w3.org/2000/svg">
<path d="M9.17484 5.31668L6.13016 1.80239C5.77916 1.39741 5.13566 1.39921 4.72797 1.80779L2.22418 4.31594C1.47898 5.06199 1.26568 6.16983 1.69678 7.05807C4.27222 12.3902 8.57279 16.6966 13.9016 19.2793C14.789 19.7104 15.896 19.4971 16.6412 18.7511L19.1684 16.2195C19.5779 15.81 19.5788 15.163 19.1702 14.812L15.6422 11.7837C15.2732 11.4669 14.6999 11.5083 14.33 11.8791L13.1024 13.1084C13.0396 13.1743 12.9568 13.2177 12.8669 13.232C12.777 13.2463 12.6849 13.2307 12.6047 13.1876C10.5981 12.0322 8.93364 10.3656 7.78075 8.3576C7.73757 8.27728 7.72194 8.18501 7.73625 8.09495C7.75055 8.00489 7.79401 7.92201 7.85995 7.85902L9.08394 6.6342C9.45474 6.26162 9.49524 5.68655 9.17484 5.31668Z" stroke="#037F8C" stroke-width="2" stroke-linecap="round" stroke-linejoin="round"/>
</svg>

<?xml version="1.0" encoding="utf-8"?>
<!-- Generator: Adobe Illustrator 26.5.1, SVG Export Plug-In . SVG Version: 6.00 Build 0)  -->
<svg version="1.1" id="Camada_1" xmlns="http://www.w3.org/2000/svg" xmlns:xlink="http://www.w3.org/1999/xlink" x="0px" y="0px"
	 viewBox="0 0 21 21" style="enable-background:new 0 0 21 21;" xml:space="preserve">
<style type="text/css">
	.st0{fill:none;stroke:#FFFFFF;stroke-width:2;stroke-linecap:round;stroke-linejoin:round;}
</style>
<path class="st0" d="M9.2,5.3l-3-3.5c-0.4-0.4-1-0.4-1.4,0L2.2,4.3c-0.7,0.7-1,1.9-0.5,2.7c2.6,5.3,6.9,9.6,12.2,12.2
	c0.9,0.4,2,0.2,2.7-0.5l2.5-2.5c0.4-0.4,0.4-1.1,0-1.4l-3.5-3c-0.4-0.3-0.9-0.3-1.3,0.1l-1.2,1.2c-0.1,0.1-0.1,0.1-0.2,0.1
	c-0.1,0-0.2,0-0.3,0c-2-1.2-3.7-2.8-4.8-4.8c0-0.1-0.1-0.2,0-0.3c0-0.1,0.1-0.2,0.1-0.2l1.2-1.2C9.5,6.3,9.5,5.7,9.2,5.3z"/>
</svg>
